craft2/public/assets/svgicons/branches/books-01.svg

<svg xmlns="http://www.w3.org/2000/svg" width="48.397" height="42" viewBox="0 0 48.397 42"><g stroke="#333" stroke-width="2" stroke-linecap="round" stroke-linejoin="round" stroke-miterlimit="10" fill="none"><path d="M10.397 36h29"/><path d="M32.397 41h12"/><path d="M31.397 31h13"/><path d="M39.699 41h-33.777c-2.718 0-4.922-2.204-4.922-4.922v-.155c0-2.719 2.204-4.923 4.922-4.923h33.776v10z"/><path d="M10.397 16h29"/><path d="M32.397 21h12"/><path d="M31.397 11h13"/><path d="M39.699 21h-33.777c-2.718 0-4.922-2.204-4.922-4.922v-.155c0-2.719 2.204-4.923 4.922-4.923h33.776v10z"/><path d="M18.397 26h25"/><path d="M36.397 31h11"/><path d="M35.397 21h12"/><path d="M43.699 31h-30.777c-2.718 0-4.922-2.204-4.922-4.922v-.155c0-2.719 2.204-4.923 4.922-4.923h30.776v10z"/><path d="M18.397 6h25"/><path d="M36.397 11h11"/><path d="M35.397 1h12"/><path d="M43.699 11h-30.777c-2.718 0-4.922-2.204-4.922-4.922v-.156c0-2.718 2.204-4.922 4.922-4.922h30.776v10z"/></g></svg>

<?xml version="1.0" encoding="utf-8"?>
<!-- Generator: Adobe Illustrator 17.0.0, SVG Export Plug-In . SVG Version: 6.00 Build 0)  -->
<!DOCTYPE svg PUBLIC "-//W3C//DTD SVG 1.1//EN" "http://www.w3.org/Graphics/SVG/1.1/DTD/svg11.dtd">
<svg version="1.1" id="Layer_1" xmlns="http://www.w3.org/2000/svg" xmlns:xlink="http://www.w3.org/1999/xlink" x="0px" y="0px"
	 width="48.397px" height="42px" viewBox="0 0 48.397 42" enable-background="new 0 0 48.397 42" xml:space="preserve">
<g>
	<g>
		
			<line fill="none" stroke="#333333" stroke-width="2" stroke-linecap="round" stroke-linejoin="round" stroke-miterlimit="10" x1="10.397" y1="36" x2="39.397" y2="36"/>
		
			<line fill="none" stroke="#333333" stroke-width="2" stroke-linecap="round" stroke-linejoin="round" stroke-miterlimit="10" x1="32.397" y1="41" x2="44.397" y2="41"/>
		
			<line fill="none" stroke="#333333" stroke-width="2" stroke-linecap="round" stroke-linejoin="round" stroke-miterlimit="10" x1="31.397" y1="31" x2="44.397" y2="31"/>
		<path fill="none" stroke="#333333" stroke-width="2" stroke-linecap="round" stroke-linejoin="round" stroke-miterlimit="10" d="
			M39.699,41H5.922C3.204,41,1,38.796,1,36.078v-0.155C1,33.204,3.204,31,5.922,31h33.776V41z"/>
	</g>
	<g>
		
			<line fill="none" stroke="#333333" stroke-width="2" stroke-linecap="round" stroke-linejoin="round" stroke-miterlimit="10" x1="10.397" y1="16" x2="39.397" y2="16"/>
		
			<line fill="none" stroke="#333333" stroke-width="2" stroke-linecap="round" stroke-linejoin="round" stroke-miterlimit="10" x1="32.397" y1="21" x2="44.397" y2="21"/>
		
			<line fill="none" stroke="#333333" stroke-width="2" stroke-linecap="round" stroke-linejoin="round" stroke-miterlimit="10" x1="31.397" y1="11" x2="44.397" y2="11"/>
		<path fill="none" stroke="#333333" stroke-width="2" stroke-linecap="round" stroke-linejoin="round" stroke-miterlimit="10" d="
			M39.699,21H5.922C3.204,21,1,18.796,1,16.078v-0.155C1,13.204,3.204,11,5.922,11h33.776V21z"/>
	</g>
	<g>
		
			<line fill="none" stroke="#333333" stroke-width="2" stroke-linecap="round" stroke-linejoin="round" stroke-miterlimit="10" x1="18.397" y1="26" x2="43.397" y2="26"/>
		
			<line fill="none" stroke="#333333" stroke-width="2" stroke-linecap="round" stroke-linejoin="round" stroke-miterlimit="10" x1="36.397" y1="31" x2="47.397" y2="31"/>
		
			<line fill="none" stroke="#333333" stroke-width="2" stroke-linecap="round" stroke-linejoin="round" stroke-miterlimit="10" x1="35.397" y1="21" x2="47.397" y2="21"/>
		<path fill="none" stroke="#333333" stroke-width="2" stroke-linecap="round" stroke-linejoin="round" stroke-miterlimit="10" d="
			M43.699,31H12.922C10.204,31,8,28.796,8,26.078v-0.155C8,23.204,10.204,21,12.922,21h30.776V31z"/>
	</g>
	<g>
		
			<line fill="none" stroke="#333333" stroke-width="2" stroke-linecap="round" stroke-linejoin="round" stroke-miterlimit="10" x1="18.397" y1="6" x2="43.397" y2="6"/>
		
			<line fill="none" stroke="#333333" stroke-width="2" stroke-linecap="round" stroke-linejoin="round" stroke-miterlimit="10" x1="36.397" y1="11" x2="47.397" y2="11"/>
		
			<line fill="none" stroke="#333333" stroke-width="2" stroke-linecap="round" stroke-linejoin="round" stroke-miterlimit="10" x1="35.397" y1="1" x2="47.397" y2="1"/>
		<path fill="none" stroke="#333333" stroke-width="2" stroke-linecap="round" stroke-linejoin="round" stroke-miterlimit="10" d="
			M43.699,11H12.922C10.204,11,8,8.796,8,6.078V5.922C8,3.204,10.204,1,12.922,1h30.776V11z"/>
	</g>
</g>
</svg>
